public/images/sign_up.svg

<svg width="355" height="262" viewBox="0 0 355 262" fill="none" xmlns="http://www.w3.org/2000/svg">
<path d="M345.87 231.264H74.1415C71.7251 231.264 69.4076 230.304 67.6989 228.595C65.9903 226.887 65.0303 224.569 65.0303 222.153C163.532 210.705 260.182 210.705 354.981 222.153C354.981 224.569 354.021 226.887 352.313 228.595C350.604 230.304 348.286 231.264 345.87 231.264Z" fill="#2F2E41"/>
<path d="M354.981 222.689L65.0303 222.153L98.6346 165.61L98.7954 165.342V40.7271C98.7953 39.2146 99.0931 37.7168 99.6719 36.3193C100.251 34.9219 101.099 33.6522 102.169 32.5826C103.238 31.5131 104.508 30.6647 105.905 30.0859C107.303 29.5072 108.8 29.2093 110.313 29.2095H308.091C309.603 29.2093 311.101 29.5072 312.498 30.0859C313.896 30.6647 315.166 31.5131 316.235 32.5826C317.305 33.6522 318.153 34.9219 318.732 36.3193C319.311 37.7168 319.608 39.2146 319.608 40.7271V166.199L354.981 222.689Z" fill="#3F3D56"/>
<path d="M110.051 37.2488C109.056 37.2499 108.102 37.6455 107.399 38.3489C106.696 39.0522 106.3 40.0058 106.299 41.0005V154.623C106.3 155.617 106.696 156.571 107.399 157.274C108.102 157.977 109.056 158.373 110.051 158.374H309.961C310.956 158.373 311.909 157.977 312.613 157.274C313.316 156.571 313.712 155.617 313.713 154.623V41.0005C313.712 40.0058 313.316 39.0522 312.613 38.3489C311.909 37.6456 310.956 37.2499 309.961 37.2488H110.051Z" fill="white"/>
<path d="M110.888 173.381C110.581 173.381 110.28 173.47 110.021 173.636C109.762 173.801 109.556 174.038 109.427 174.317L99.0728 196.827C98.96 197.072 98.9107 197.341 98.9294 197.61C98.948 197.879 99.0341 198.139 99.1795 198.366C99.325 198.593 99.5252 198.78 99.7617 198.909C99.9983 199.039 100.264 199.107 100.533 199.107H318.283C318.558 199.107 318.827 199.037 319.066 198.903C319.306 198.77 319.507 198.577 319.651 198.344C319.795 198.111 319.877 197.845 319.89 197.571C319.902 197.297 319.844 197.025 319.721 196.78L308.466 174.27C308.333 174.002 308.128 173.777 307.874 173.62C307.62 173.463 307.327 173.38 307.028 173.381H110.888Z" fill="#2F2E41"/>
<path d="M209.202 35.3729C210.534 35.3729 211.614 34.2931 211.614 32.9611C211.614 31.6291 210.534 30.5493 209.202 30.5493C207.87 30.5493 206.79 31.6291 206.79 32.9611C206.79 34.2931 207.87 35.3729 209.202 35.3729Z" fill="white"/>
<path d="M187.799 203.394C187.445 203.395 187.102 203.511 186.821 203.726C186.541 203.941 186.339 204.243 186.246 204.584L183.649 214.231C183.585 214.469 183.576 214.719 183.624 214.961C183.672 215.204 183.775 215.431 183.925 215.627C184.075 215.823 184.268 215.982 184.49 216.091C184.711 216.2 184.955 216.257 185.201 216.257H234.597C234.853 216.257 235.106 216.196 235.334 216.078C235.561 215.961 235.758 215.791 235.906 215.582C236.055 215.373 236.152 215.132 236.188 214.878C236.224 214.624 236.2 214.366 236.116 214.123L232.776 204.476C232.667 204.16 232.462 203.886 232.19 203.693C231.917 203.499 231.591 203.394 231.257 203.394H187.799Z" fill="#2F2E41"/>
<path d="M319.608 163.466V165.609H98.6345L98.8008 165.342V163.466H319.608Z" fill="#2F2E41"/>
<path d="M313.445 75.0335C334.165 75.0335 350.962 58.2367 350.962 37.5167C350.962 16.7968 334.165 0 313.445 0C292.725 0 275.928 16.7968 275.928 37.5167C275.928 58.2367 292.725 75.0335 313.445 75.0335Z" fill="#47A138"/>
<path d="M328.987 53.8634H297.902C297.334 53.8628 296.789 53.6368 296.387 53.2349C295.985 52.8329 295.759 52.288 295.758 51.7196V32.9612C295.759 32.3928 295.985 31.8479 296.387 31.446C296.789 31.044 297.334 30.818 297.902 30.8174H328.987C329.556 30.818 330.101 31.044 330.503 31.446C330.905 31.8479 331.131 32.3928 331.131 32.9612V51.7196C331.131 52.288 330.905 52.8329 330.503 53.2349C330.101 53.6368 329.556 53.8628 328.987 53.8634ZM297.902 32.9612V51.7196H328.989L328.987 32.9612L297.902 32.9612Z" fill="white"/>
<path d="M323.092 32.9613H303.797V24.3861C303.797 18.175 307.855 13.667 313.445 13.667C319.034 13.667 323.092 18.175 323.092 24.3861L323.092 32.9613ZM305.941 30.8175H320.948V24.3861C320.948 19.3371 317.863 15.8108 313.445 15.8108C309.027 15.8108 305.941 19.3372 305.941 24.3861L305.941 30.8175Z" fill="white"/>
<path d="M313.445 43.948C314.629 43.948 315.588 42.9882 315.588 41.8042C315.588 40.6202 314.629 39.6604 313.445 39.6604C312.261 39.6604 311.301 40.6202 311.301 41.8042C311.301 42.9882 312.261 43.948 313.445 43.948Z" fill="white"/>
<path d="M287.255 119.835H132.757C131.998 119.834 131.271 119.532 130.735 118.996C130.198 118.46 129.897 117.732 129.896 116.974V78.6494C129.897 77.8909 130.198 77.1637 130.735 76.6273C131.271 76.0909 131.998 75.7892 132.757 75.7883H287.255C288.013 75.7892 288.741 76.0909 289.277 76.6273C289.813 77.1637 290.115 77.8909 290.116 78.6494V116.974C290.115 117.732 289.813 118.46 289.277 118.996C288.741 119.532 288.013 119.834 287.255 119.835ZM132.757 76.9328C132.302 76.9333 131.865 77.1143 131.543 77.4361C131.222 77.7579 131.041 78.1943 131.04 78.6494V116.974C131.041 117.429 131.222 117.865 131.543 118.187C131.865 118.509 132.302 118.69 132.757 118.69H287.255C287.71 118.69 288.146 118.509 288.468 118.187C288.79 117.865 288.971 117.429 288.971 116.974V78.6494C288.971 78.1943 288.79 77.7579 288.468 77.4361C288.146 77.1143 287.71 76.9333 287.255 76.9328L132.757 76.9328Z" fill="#E6E6E6"/>
<path d="M156.763 107.995C163.199 107.995 168.417 102.777 168.417 96.3408C168.417 89.9042 163.199 84.6863 156.763 84.6863C150.326 84.6863 145.108 89.9042 145.108 96.3408C145.108 102.777 150.326 107.995 156.763 107.995Z" fill="#E6E6E6"/>
<path d="M183.679 88.5713C183.423 88.5709 183.171 88.6208 182.935 88.7183C182.699 88.8157 182.484 88.9587 182.303 89.1391C182.123 89.3195 181.979 89.5338 181.881 89.7697C181.784 90.0055 181.733 90.2584 181.733 90.5137C181.733 90.769 181.784 91.0219 181.881 91.2577C181.979 91.4936 182.123 91.7079 182.303 91.8883C182.484 92.0687 182.699 92.2117 182.935 92.3091C183.171 92.4066 183.423 92.4565 183.679 92.4561H275.25C275.765 92.4561 276.259 92.2515 276.623 91.8872C276.988 91.5229 277.192 91.0289 277.192 90.5137C277.192 89.9985 276.988 89.5045 276.623 89.1402C276.259 88.7759 275.765 88.5713 275.25 88.5713H183.679Z" fill="#E6E6E6"/>
<path d="M183.679 100.226C183.164 100.226 182.67 100.43 182.305 100.795C181.941 101.159 181.737 101.653 181.737 102.168C181.737 102.683 181.941 103.177 182.305 103.542C182.67 103.906 183.164 104.111 183.679 104.111H223.082C223.597 104.111 224.091 103.906 224.456 103.542C224.82 103.177 225.025 102.683 225.025 102.168C225.025 101.653 224.82 101.159 224.456 100.795C224.091 100.43 223.597 100.226 223.082 100.226H183.679Z" fill="#E6E6E6"/>
<path d="M95.9607 95.3061L96.1196 95.2206L96.1873 95.0534L99.1743 87.6736C99.4673 86.9499 99.9434 86.3147 100.556 85.8306C101.169 85.3464 101.896 85.0298 102.668 84.912C103.44 84.7941 104.229 84.879 104.959 85.1582C105.688 85.4375 106.332 85.9016 106.827 86.505C107.552 87.3877 107.915 88.5131 107.841 89.6531C107.768 90.7931 107.263 91.8626 106.431 92.6447L97.9608 100.601L70.1711 115.376L69.845 103.963C79.0521 102.388 87.8288 99.6802 95.9607 95.3061Z" stroke="black"/>
<path d="M28.4703 188.678C28.262 187.914 28.2177 187.114 28.3405 186.332C28.4633 185.549 28.7503 184.802 29.1827 184.138L35.4566 174.51C36.9405 172.232 39.2174 170.587 41.8457 169.894C44.4739 169.201 47.2659 169.508 49.6802 170.757C47.0435 175.245 47.411 179.183 50.5908 182.604C45.6546 185.014 41.0924 188.124 37.0455 191.838C36.3067 192.342 35.4583 192.662 34.5708 192.771C33.6834 192.881 32.7827 192.776 31.9437 192.467C31.1048 192.158 30.3518 191.653 29.7477 190.994C29.1435 190.335 28.7055 189.541 28.4703 188.678Z" fill="#2F2E41"/>
<path d="M99.5551 176.089C98.6057 177.671 97.2656 178.983 95.6633 179.898C94.0611 180.813 92.2504 181.301 90.4052 181.315L48.7259 181.631L46.9183 171.147L65.3559 165.724L49.8105 153.794L66.8019 133.91L97.6637 162.674C99.4676 164.356 100.64 166.605 100.984 169.047C101.328 171.488 100.824 173.974 99.5551 176.089Z" fill="#8B8B8B"/>
<path d="M42.2185 247.789H32.4574C23.6934 187.715 14.7725 127.473 41.134 104.988L72.2248 110.05L68.2481 136.441L50.895 156.324L42.2185 247.789Z" fill="#8B8B8B"/>
<path d="M50.799 261.398C50.0349 261.606 49.2353 261.65 48.4528 261.528C47.6703 261.405 46.9227 261.118 46.2591 260.685L35.6606 259.261C33.3832 257.777 31.7381 255.5 31.0446 252.872C30.351 250.244 30.6585 247.452 31.9072 245.038C36.3956 247.674 40.3328 247.306 43.7543 244.126C46.1718 249.008 50.155 248.71 53.9591 252.822C54.4628 253.561 54.7826 254.409 54.892 255.297C55.0015 256.184 54.8972 257.085 54.5881 257.924C54.2789 258.763 53.7737 259.516 53.1146 260.12C52.4556 260.724 51.6616 261.162 50.799 261.398Z" fill="#2F2E41"/>
<path d="M70.3239 120.935C57.1652 129.902 47.8676 121.242 40.7725 107.881C41.7584 99.7048 40.1621 89.9208 37.2055 79.2897C35.8906 74.6007 36.3815 69.589 38.5813 65.2443C40.7811 60.8995 44.5298 57.5373 49.0875 55.8215L64.6329 62.3289C77.8328 73.0883 80.4309 84.7429 75.4786 97.035L70.3239 120.935Z" fill="#3F3D56"/>
<path d="M3.61458 77.485L29.2205 59.9182L31.8955 73.6279L17.7643 81.0468L16.9707 81.4635L17.7422 81.9198L43.2648 97.0178L46.7729 105.671C46.9858 106.196 47.0895 106.759 47.0777 107.326C47.0659 107.892 46.9389 108.45 46.7043 108.966C46.4698 109.482 46.1326 109.944 45.7135 110.326C45.2943 110.707 44.8019 110.999 44.2663 111.183C43.6574 111.393 43.0082 111.459 42.3694 111.377C41.7307 111.294 41.1198 111.064 40.5847 110.706C40.0495 110.348 39.6045 109.87 39.2846 109.311C38.9647 108.752 38.7785 108.127 38.7407 107.484L38.3795 101.344L38.3596 101.005L38.0371 100.898L5.41335 90.1325C4.38622 89.7936 3.4497 89.2253 2.6747 88.4708C1.8997 87.7163 1.30654 86.7954 0.940181 85.7777L0.469737 85.9471L0.940181 85.7777C0.40615 84.2943 0.378971 82.6757 0.862887 81.1752C1.3468 79.6747 2.31451 78.3769 3.61458 77.485L3.33173 77.0727L3.61458 77.485Z" stroke="black"/>
<path d="M46.9184 75.3437C40.8873 72.7006 35.4031 75.5718 28.4808 77.8743L27.3963 58.7137C34.2698 55.0502 40.8233 54.0625 46.9184 56.9061L46.9184 75.3437Z" fill="#3F3D56"/>
<path d="M69.2777 52.8355H36.5394C35.9976 52.8349 35.4787 52.6204 35.0963 52.2398C34.714 51.8593 34.4994 51.344 34.4987 50.807V36.7615C34.4987 31.9031 36.4377 27.2433 39.89 23.8072C43.3423 20.371 48.0252 18.4402 52.9086 18.4402C57.7919 18.4402 62.4748 20.371 65.9271 23.8072C69.3794 27.2433 71.3184 31.9031 71.3184 36.7615V50.8067C71.3178 51.3438 71.1032 51.8593 70.7209 52.2398C70.3385 52.6204 69.8195 52.8349 69.2777 52.8355Z" stroke="black"/>
<path d="M69.0113 46.0009C72.6895 39.2724 70.2166 30.8361 63.4881 27.1579C56.7596 23.4798 48.3233 25.9526 44.6451 32.6812C40.967 39.4097 43.4398 47.846 50.1683 51.5241C56.8969 55.2023 65.3332 52.7295 69.0113 46.0009Z" fill="#47A138"/>
<path d="M62.793 46.2131C63.1031 46.0772 63.3863 45.8597 63.6237 45.5753C63.7808 45.3725 63.9006 45.1291 63.9747 44.8622C64.0488 44.5953 64.0754 44.3113 64.0527 44.0301C64.0395 43.8298 63.9895 43.6359 63.9066 43.4637C63.8237 43.2916 63.7101 43.1458 63.5748 43.0377C63.2237 42.7672 62.7597 42.7774 62.2913 43.0494L62.2372 38.3047L61.8568 38.3115L61.9203 43.8894L62.2099 43.6515C62.5458 43.376 63.0283 43.1762 63.3754 43.4437C63.4613 43.5146 63.533 43.6092 63.5849 43.7204C63.6368 43.8316 63.6675 43.9563 63.6747 44.0847C63.6907 44.2942 63.6705 44.5055 63.6154 44.7043C63.5604 44.9031 63.4719 45.0847 63.3558 45.2368C62.9434 45.7495 62.3329 45.9212 61.6362 46.0784L61.7036 46.5474C62.074 46.477 62.4386 46.3651 62.793 46.2131Z" fill="black"/>
<path d="M69.3926 39.3654L65.7598 39.9155L65.862 40.5899L69.4947 40.0398L69.3926 39.3654Z" fill="black"/>
<path d="M50.8245 39.3654L54.4572 39.9155L54.3551 40.5899L50.7223 40.0398L50.8245 39.3654Z" fill="black"/>
<path d="M55.6419 35.2142L54.7403 37.8046H52.5034L52.1321 32.4705L51.1611 32.3409L49.2593 37.8046H44.198C44.256 33.9728 45.765 30.3133 48.4065 27.6032C51.0964 24.8433 54.7407 23.2933 58.5392 23.2888H61.3392C65.1377 23.2933 68.7821 24.8433 71.472 27.6031C74.1135 30.3133 75.6225 33.9727 75.6806 37.8046H56.7843L56.6129 35.3438L55.6419 35.2142Z" stroke="black"/>
</svg>

<svg xmlns="http://www.w3.org/2000/svg" width="355" height="262" fill="none"><path fill="#2F2E41" d="M345.87 231.264H74.142a9.11 9.11 0 0 1-9.112-9.111q147.753-17.172 289.951 0a9.11 9.11 0 0 1-9.111 9.111"/><path fill="#3F3D56" d="m354.981 222.689-289.95-.536 33.604-56.543.16-.268V40.727a11.517 11.517 0 0 1 11.518-11.517h197.778a11.51 11.51 0 0 1 10.641 7.11c.579 1.397.876 2.895.876 4.407V166.2z"/><path fill="#fff" d="M110.051 37.249A3.755 3.755 0 0 0 106.299 41v113.622a3.756 3.756 0 0 0 3.752 3.751h199.91a3.76 3.76 0 0 0 3.752-3.751V41.001a3.757 3.757 0 0 0-3.752-3.752z"/><path fill="#2F2E41" d="M110.888 173.381a1.61 1.61 0 0 0-1.461.936l-10.354 22.51a1.605 1.605 0 0 0 .689 2.082c.236.13.502.198.771.198h217.75c.275 0 .544-.07.783-.204a1.6 1.6 0 0 0 .824-1.332 1.6 1.6 0 0 0-.169-.791l-11.255-22.51a1.6 1.6 0 0 0-1.438-.889z"/><path fill="#fff" d="M209.202 35.373a2.412 2.412 0 1 0 0-4.824 2.412 2.412 0 0 0 0 4.824"/><path fill="#2F2E41" d="M187.799 203.394a1.615 1.615 0 0 0-1.553 1.19l-2.597 9.647a1.608 1.608 0 0 0 1.552 2.026h49.396a1.604 1.604 0 0 0 1.591-1.379 1.6 1.6 0 0 0-.072-.755l-3.34-9.647a1.612 1.612 0 0 0-1.519-1.082zM319.608 163.466v2.143H98.635l.166-.267v-1.876z"/><path fill="#47A138" d="M313.445 75.034c20.72 0 37.517-16.797 37.517-37.517S334.165 0 313.445 0s-37.517 16.797-37.517 37.517 16.797 37.517 37.517 37.517"/><path fill="#fff" d="M328.987 53.863h-31.085a2.146 2.146 0 0 1-2.144-2.143V32.96a2.15 2.15 0 0 1 2.144-2.144h31.085a2.147 2.147 0 0 1 2.144 2.144V51.72a2.143 2.143 0 0 1-2.144 2.143m-31.085-20.902V51.72h31.087l-.002-18.759z"/><path fill="#fff" d="M323.092 32.961h-19.295v-8.575c0-6.211 4.058-10.719 9.648-10.719s9.647 4.508 9.647 10.72zm-17.151-2.143h15.007v-6.432c0-5.049-3.085-8.575-7.503-8.575s-7.504 3.526-7.504 8.575zM313.445 43.948a2.143 2.143 0 1 0 0-4.286 2.143 2.143 0 0 0 0 4.286"/><path fill="#E6E6E6" d="M287.255 119.835H132.757a2.865 2.865 0 0 1-2.861-2.861V78.649a2.86 2.86 0 0 1 2.861-2.86h154.498a2.864 2.864 0 0 1 2.861 2.86v38.325a2.867 2.867 0 0 1-2.861 2.861M132.757 76.933a1.72 1.72 0 0 0-1.717 1.716v38.325a1.718 1.718 0 0 0 1.717 1.716h154.498a1.715 1.715 0 0 0 1.716-1.716V78.649a1.715 1.715 0 0 0-1.716-1.716z"/><path fill="#E6E6E6" d="M156.763 107.995c6.436 0 11.654-5.218 11.654-11.654 0-6.437-5.218-11.655-11.654-11.655-6.437 0-11.655 5.218-11.655 11.655s5.218 11.654 11.655 11.654M183.679 88.571a1.94 1.94 0 0 0-1.376.568 1.96 1.96 0 0 0-.57 1.375 1.96 1.96 0 0 0 .57 1.374 1.95 1.95 0 0 0 1.376.568h91.571a1.94 1.94 0 0 0 1.373-3.316 1.94 1.94 0 0 0-1.373-.569zM183.679 100.226a1.942 1.942 0 1 0 0 3.885h39.403a1.946 1.946 0 0 0 1.943-1.943 1.94 1.94 0 0 0-1.943-1.942z"/><path stroke="#000" d="m95.96 95.306.16-.085.067-.168 2.987-7.38a4.503 4.503 0 1 1 7.257 4.972l-8.47 7.956-27.79 14.775-.326-11.413c9.207-1.575 17.984-4.283 26.116-8.657Z"/><path fill="#2F2E41" d="M28.47 188.678a5.61 5.61 0 0 1 .713-4.54l6.274-9.628a10.96 10.96 0 0 1 14.223-3.753c-2.636 4.488-2.269 8.426.91 11.847a57 57 0 0 0-13.545 9.234 5.6 5.6 0 0 1-5.101.629 5.61 5.61 0 0 1-3.474-3.789"/><path fill="#8B8B8B" d="M99.555 176.089a10.77 10.77 0 0 1-9.15 5.226l-41.68.316-1.807-10.484 18.438-5.423-15.545-11.93L66.8 133.91l30.863 28.764a10.77 10.77 0 0 1 1.891 13.415"/><path fill="#8B8B8B" d="M42.219 247.789h-9.762c-8.764-60.074-17.684-120.316 8.677-142.801l31.09 5.062-3.976 26.391-17.353 19.883z"/><path fill="#2F2E41" d="M50.799 261.398a5.607 5.607 0 0 1-4.54-.713l-10.598-1.424a10.965 10.965 0 0 1-3.754-14.223c4.489 2.636 8.426 2.268 11.847-.912 2.418 4.882 6.401 4.584 10.205 8.696a5.61 5.61 0 0 1-3.16 8.576"/><path fill="#3F3D56" d="M70.324 120.935c-13.159 8.967-22.456.307-29.551-13.054.985-8.176-.61-17.96-3.568-28.591A19.46 19.46 0 0 1 49.088 55.82l15.545 6.508c13.2 10.76 15.798 22.414 10.846 34.706z"/><path stroke="#000" d="M3.615 77.485 29.22 59.918l2.674 13.71-14.13 7.419-.794.416.771.457 25.523 15.098 3.508 8.653a4.172 4.172 0 1 1-8.032 1.813l-.361-6.14-.02-.339-.323-.107L5.413 90.132A7.13 7.13 0 0 1 .94 85.779l-.47.17.47-.17a7.13 7.13 0 0 1 2.675-8.293l-.283-.412z"/><path fill="#3F3D56" d="M46.918 75.344c-6.03-2.643-11.515.228-18.437 2.53l-1.085-19.16c6.874-3.664 13.427-4.651 19.522-1.808z"/><path stroke="#000" d="M69.278 52.836H36.539c-.541-.001-1.06-.216-1.443-.596a2.03 2.03 0 0 1-.597-1.433V36.761c0-4.858 1.939-9.518 5.391-12.954a18.45 18.45 0 0 1 13.019-5.367c4.883 0 9.566 1.931 13.018 5.367a18.28 18.28 0 0 1 5.391 12.955v14.045c0 .537-.215 1.052-.597 1.433a2.05 2.05 0 0 1-1.443.596Z"/><path fill="#47A138" d="M69.011 46c3.678-6.728 1.206-15.164-5.523-18.842s-15.165-1.205-18.843 5.523c-3.678 6.729-1.205 15.165 5.523 18.843 6.729 3.678 15.165 1.206 18.843-5.523"/><path fill="#000" d="M62.793 46.213c.31-.136.593-.353.83-.638.158-.203.278-.446.352-.713s.1-.55.078-.832a1.5 1.5 0 0 0-.146-.566 1.2 1.2 0 0 0-.332-.426c-.351-.27-.815-.26-1.284.011l-.054-4.744-.38.007.063 5.577.29-.238c.336-.275.818-.475 1.165-.207a.8.8 0 0 1 .21.276 1 1 0 0 1 .09.365c.016.21-.005.42-.06.62-.055.198-.143.38-.26.532-.412.512-1.022.684-1.719.841l.068.47a5.3 5.3 0 0 0 1.089-.335M69.393 39.365l-3.633.55.102.675 3.633-.55zM50.825 39.365l3.632.55-.102.675-3.633-.55z"/><path stroke="#000" d="m55.642 35.214-.902 2.59h-2.237l-.37-5.334-.972-.13-1.902 5.465h-5.061c.058-3.832 1.567-7.492 4.209-10.202 2.69-2.76 6.334-4.31 10.132-4.314h2.8c3.799.004 7.443 1.554 10.133 4.314 2.642 2.71 4.15 6.37 4.209 10.202H56.784l-.171-2.461z"/></svg>
